**kern	**kern	**dynam
*part1	*part1	*part1
*staff2	*staff1	*
*I"Piano	*	*
*clefF4	*clefG2	*
*k[]	*k[]	*
=1	=1	=1
8BL]	4.dd)	.
8GJ	.	.
[4d	.	.
.	(8f 8g	.
=	=	=
8dL]	4.b)	>
8GJ	.	.
4B	.	.
.	(8d 8f	.
=	=	=
8r	4.g)	.
8GL	.	.
8B	.	.
8GJ	8d 8f	] <
=	=	=
!	!LO:TX:b:i:t=cresc.	!
4.A	8r	[
.	[8c 8f	.
.	4c_ [4g	.
8G	.	.
=	=	=
4.A	8cL] 8g]	.
.	[8cJ 8f	.
.	4c_ [4g	.
8G	.	.
=	=	=
4.B	8cL] 8g]	.
!	!LO:TX:b:i:t=dim.	!
.	[8dJ [8f	.
!	!LO:TX:a:i:t=riten.	!
.	4d_ 4f_ [4g	.
8G	.	.
=	=	=
4.G;	8dL] 8f] 8g]	pp
.	[8dJ [8f	.
.	4d;] 4f] 4g	.
8G	.	.
=	=	=
!	!LO:TX:a:i:t=leggiero e	!
4C	8r	.
.	8gL 8ee	.
4G 4c 4e	8ccJ 8gg	.
.	8r	.
=	=	=
*-	*-	*-
!!!system-decoration: {(s1,s2)}
